src/lib/packages/icons/src/assets/line/times-circle.svg

<svg width="24" height="24" viewBox="0 0 24 24" fill="none" xmlns="http://www.w3.org/2000/svg">
<path d="M12 1.25C6.072 1.25 1.25 6.073 1.25 12C1.25 17.927 6.072 22.75 12 22.75C17.928 22.75 22.75 17.927 22.75 12C22.75 6.073 17.928 1.25 12 1.25ZM12 21.25C6.899 21.25 2.75 17.101 2.75 12C2.75 6.899 6.899 2.75 12 2.75C17.101 2.75 21.25 6.899 21.25 12C21.25 17.101 17.101 21.25 12 21.25ZM15.53 9.53003L13.06 12L15.53 14.47C15.823 14.763 15.823 15.238 15.53 15.531C15.384 15.677 15.192 15.751 15 15.751C14.808 15.751 14.616 15.678 14.47 15.531L12 13.061L9.53 15.531C9.384 15.677 9.192 15.751 9 15.751C8.808 15.751 8.616 15.678 8.47 15.531C8.177 15.238 8.177 14.763 8.47 14.47L10.94 12L8.47 9.53003C8.177 9.23703 8.177 8.76199 8.47 8.46899C8.763 8.17599 9.23801 8.17599 9.53101 8.46899L12.001 10.939L14.471 8.46899C14.764 8.17599 15.239 8.17599 15.532 8.46899C15.823 8.76199 15.823 9.23803 15.53 9.53003Z" fill="currentColor"/>
</svg>

<svg xmlns="http://www.w3.org/2000/svg" width="24" height="24" fill="none"><path fill="currentColor" d="M12 1.25C6.072 1.25 1.25 6.073 1.25 12S6.072 22.75 12 22.75 22.75 17.927 22.75 12 17.928 1.25 12 1.25Zm0 20c-5.101 0-9.25-4.149-9.25-9.25S6.899 2.75 12 2.75s9.25 4.149 9.25 9.25-4.149 9.25-9.25 9.25Zm3.53-11.72L13.06 12l2.47 2.47a.75.75 0 0 1-1.06 1.061L12 13.061l-2.47 2.47a.748.748 0 0 1-1.06 0 .75.75 0 0 1 0-1.061L10.94 12 8.47 9.53a.75.75 0 0 1 1.061-1.061l2.47 2.47 2.47-2.47A.75.75 0 1 1 15.53 9.53Z"/></svg>
